X: 46
T:An Italian Rant
T:John Malchair's Third Collection of Tunes
%%VWML:Malchair-3619-p46
F:https://www.vwml.org/record/Malchair/3619/p46
F:www.vwml.org/topics/historic-dance-and-tune-books/Malchair
Z:Steve Mansfield Jan 2020
M:C|
N:* ^e in Mss
L:1/8
K:Bb
G A B c d2 d2 | e2d c d2d2 | c2c d B2B c | A G A B G2G2 :: g2g g f2f f | "*"=e d e f d2d2 | 
d =e f d _e2d2 | c3d B2B2 | B c d B c2A2 | G A B c d2d2 | e2d c d2d2 | c2c d B2B | c A G A B G2G2 :| 
W:
T:The Knot ed. 1695
T:John Malchair's Third Collection of Tunes
F:https://www.vwml.org/record/Malchair/3619/p46
F:www.vwml.org/topics/historic-dance-and-tune-books/Malchair
M:C|
N:* ^f in Mss
L:1/4
K:G
C2 B,A, | (B,/ C/) (D/B,)G,D | G2 FE | FA2 B/ c/ | d2cB | (A/ B/) (c/ A/) F2 | \
  (E/ B/) (c/ A/)F(E/ D/) | G2G,2 ||
C>D (E/ D/) (E/ F/) | E/ F/ G D2 | GB, B,(A,/ G,/) | A,3 A/ B/ | c>d (e/ d/) (e/ f/) | \
   (e/ f/)g d2 | Bc/ A/ AG | G3 ||
d | "*"=f2ed | e(c/ B/) c(B/ A/) | ae e/ f/g | f3 (d/ e// f//) | g(f/ e/) (d/ c/) (B/ A/) | \
   "*"=f(e/ d/) (c/ B/) (A/ G/) | FG A/G/F | G3 ||

